!!!SOCIAL_FUNCTION: war songs
!!!PDT:	1929
!!!LING_GROUP: Caddoan
!!!LANG: Non-Tone
!!!REG: Oklahoma
!!!COM: Anon.
!!!OTL: A Woman Welcomes the Warriors
!!!ODT: <1920//
!!!MPN: Tutukrawitsu [He overtook the enemy, Wicita Blain]
!!!MLC: Pawnee, Oklahoma, United States of America
!! Song was recorded either 1919 or 1920.
!!!AGN: monody
!!!AMT: irregular
!!!RWG: Transcribed pitches, durations, and meters are only approximate.
!! Drum not recorded
**kern	**silbe	**words	**words
*ICvox	*IPawnee	*IPawnee	*IEnglish
*Ifemale	*	*	*
*clefF4	*	*	*
*k[f#c#]	*	*	*
*M2/4	*M2/4	*M2/4	*M2/4
*MM66	*MM66	*MM66	*MM66
=1-	=1-	=1-	=1-
16f#	Hi-	Hia	[A woman's exclamation of surprise]
8f#	-a	.	.
16f#	a	.	.
8f#	hi-	hia	[A woman's exclamation of surprise]
8e	-a	.	.
=2	=2	=2	=2
8d	hi-	hia	[A woman's exclamation of surprise]
8B	-a	.	.
4A	hi-	hia	[A woman's exclamation of surprise]
=3	=3	=3	=3
2F#	-a	.	.
=4	=4	=4	=4
16f#	hi-	hia	[A woman's exclamation of surprise]
8f#	-a	.	.
16e	a	.	.
8f#	hi-	hia	[A woman's exclamation of surprise]
8e	-a	.	.
=5	=5	=5	=5
8d	hi-	hia	[A woman's exclamation of surprise]
8B	-a	.	.
4A	hi-	hia	[A woman's exclamation of surprise]
=6	=6	=6	=6
2F#	-a	.	.
*M3/4	*M3/4	*M3/4	*M3/4
=7	=7	=7	=7
16d	hi-	hia	[A woman's exclamation of surprise]
8d	-a	.	.
16B	a	.	.
8d	hi-	hia	[A woman's exclamation of surprise]
8B	-a	.	.
4A	hi-	hia	[A woman's exclamation of surprise]
*M2/4	*M2/4	*M2/4	*M2/4
=8	=8	=8	=8
16F#	-a	.	.
8.F#	hi-	hia	[A woman's exclamation of surprise]
8F#	-a	.	.
8F#	hi-	hia	[A woman's exclamation of surprise]
=9	=9	=9	=9
4F#	-a	.	.
8F#	we	we	now
8F#	te	te	I
=10	=10	=10	=10
(8.f#	tu	tu	you
16e)	|	.	.
(8.f#	ra	ra	have
16e)	|	.	.
=11	=11	=11	=11
8.d	ke-	kerit	seen
16B	-rit	.	.
4A	hi-	hia	[A woman's exclamation of surprise]
=12	=12	=12	=12
2F#	-a	.	.
*M3/4	*M3/4	*M3/4	*M3/4
=13	=13	=13	=13
16d	hi-	hia	[A woman's exclamation of surprise]
8d	-a	.	.
16B	a	.	.
8d	hi-	hia	[A woman's exclamation of surprise]
8B	-a	.	.
4a	hi-	hia	[A woman's exclamation of surprise]
*M2/4	*M2/4	*M2/4	*M2/4
=14	=14	=14	=14
16F#	-a	.	.
8.F#	hi-	hia	[A woman's exclamation of surprise]
8F#	-a	.	.
8F#	hi-	hia	[A woman's exclamation of surprise]
=15	=15	=15	=15
4F#	-a	.	.
4r	.	.	.
==	==	==	==
*-	*-	*-	*-
!!!HAO:    A woman's pleasure at the return of victorious warriors is
!!!HAO: expressed in the following song which was sung at the Scalp
!!!HAO: dances.  Among the Pawnee, as in other tribes, the scalps of
!!!HAO: slain warriors were carried in the victory dance.
!!!HTX: Ah, now I have seen you.
!!!CNT: Pawnee
!!!TXO: Pawnee
!!!OCY: United States
!!!OCL: Frances Densmore
!!!YOR: Frances Densmore, "Pawnee Music"
!!!YOR: Bulletin 93, page 64, No. 35
!!!PPR: Smithsonian Institution, Bureau of American Ethnology
!!!PPR: Government Printing Office
!!!PDT: 1926
!!!PPP: Washington, DC, United States of America
!!!YEC: Electronic Copyright 2000 David Huron
!!!YER: September 2000
!!!YEN: United States of America
!!!ENC: David Huron
!!!RDT: September 3, 2000
!!!EEV: Release 1.0
!!!AIN: vox
